images/3234581.svg

<?xml version="1.0" encoding="UTF-8"?>
<svg xmlns="http://www.w3.org/2000/svg" xmlns:xlink="http://www.w3.org/1999/xlink" width="300pt" height="300pt" viewBox="0 0 300 300" version="1.1">
<defs>
<g>
<symbol overflow="visible" id="glyph0-0">
<path style="stroke:none;" d="M 0.546875 1.9375 L 0.546875 -7.75 L 6.046875 -7.75 L 6.046875 1.9375 Z M 1.171875 1.328125 L 5.4375 1.328125 L 5.4375 -7.140625 L 1.171875 -7.140625 Z M 1.171875 1.328125 "/>
</symbol>
<symbol overflow="visible" id="glyph0-1">
<path style="stroke:none;" d="M 1.078125 -8.015625 L 2.546875 -8.015625 L 6.09375 -1.3125 L 6.09375 -8.015625 L 7.15625 -8.015625 L 7.15625 0 L 5.6875 0 L 2.125 -6.703125 L 2.125 0 L 1.078125 0 Z M 1.078125 -8.015625 "/>
</symbol>
<symbol overflow="visible" id="glyph0-2">
<path style="stroke:none;" d="M 4.328125 -7.28125 C 3.546875 -7.28125 2.921875 -6.984375 2.453125 -6.390625 C 1.992188 -5.804688 1.765625 -5.007812 1.765625 -4 C 1.765625 -2.988281 1.992188 -2.1875 2.453125 -1.59375 C 2.921875 -1.007812 3.546875 -0.71875 4.328125 -0.71875 C 5.117188 -0.71875 5.742188 -1.007812 6.203125 -1.59375 C 6.660156 -2.1875 6.890625 -2.988281 6.890625 -4 C 6.890625 -5.007812 6.660156 -5.804688 6.203125 -6.390625 C 5.742188 -6.984375 5.117188 -7.28125 4.328125 -7.28125 Z M 4.328125 -8.171875 C 5.453125 -8.171875 6.351562 -7.789062 7.03125 -7.03125 C 7.707031 -6.28125 8.046875 -5.269531 8.046875 -4 C 8.046875 -2.738281 7.707031 -1.726562 7.03125 -0.96875 C 6.351562 -0.21875 5.453125 0.15625 4.328125 0.15625 C 3.203125 0.15625 2.300781 -0.21875 1.625 -0.96875 C 0.957031 -1.71875 0.625 -2.726562 0.625 -4 C 0.625 -5.269531 0.957031 -6.28125 1.625 -7.03125 C 2.300781 -7.789062 3.203125 -8.171875 4.328125 -8.171875 Z M 4.328125 -8.171875 "/>
</symbol>
</g>
</defs>
<g id="surface52897">
<rect x="0" y="0" width="300" height="300" style="fill:rgb(100%,100%,100%);fill-opacity:1;stroke:none;"/>
<path style="fill:none;stroke-width:1.2;stroke-linecap:butt;stroke-linejoin:miter;stroke:rgb(0%,0%,0%);stroke-opacity:1;stroke-miterlimit:10;" d="M 80.308594 249.113281 L 94.308594 224.15625 "/>
<path style="fill:none;stroke-width:1.2;stroke-linecap:butt;stroke-linejoin:miter;stroke:rgb(0%,0%,0%);stroke-opacity:1;stroke-miterlimit:10;" d="M 94.308594 224.15625 L 108.613281 223.980469 "/>
<path style="fill:none;stroke-width:1.2;stroke-linecap:butt;stroke-linejoin:miter;stroke:rgb(0%,0%,100%);stroke-opacity:1;stroke-miterlimit:10;" d="M 108.613281 223.980469 L 122.917969 223.804688 "/>
<path style="fill:none;stroke-width:1.2;stroke-linecap:butt;stroke-linejoin:miter;stroke:rgb(0%,0%,0%);stroke-opacity:1;stroke-miterlimit:10;" d="M 97.085938 217.390625 L 108.53125 217.25 "/>
<path style="fill:none;stroke-width:1.2;stroke-linecap:butt;stroke-linejoin:miter;stroke:rgb(0%,0%,100%);stroke-opacity:1;stroke-miterlimit:10;" d="M 108.53125 217.25 L 119.972656 217.105469 "/>
<path style="fill:none;stroke-width:1.2;stroke-linecap:butt;stroke-linejoin:miter;stroke:rgb(0%,0%,0%);stroke-opacity:1;stroke-miterlimit:10;" d="M 79.695312 199.554688 L 94.308594 224.15625 "/>
<path style="fill:none;stroke-width:1.2;stroke-linecap:butt;stroke-linejoin:miter;stroke:rgb(0%,0%,100%);stroke-opacity:1;stroke-miterlimit:10;" d="M 122.917969 223.804688 L 129.917969 211.328125 "/>
<path style="fill:none;stroke-width:1.2;stroke-linecap:butt;stroke-linejoin:miter;stroke:rgb(0%,0%,0%);stroke-opacity:1;stroke-miterlimit:10;" d="M 129.917969 211.328125 L 136.917969 198.847656 "/>
<path style=" stroke:none;fill-rule:nonzero;fill:rgb(100%,100%,100%);fill-opacity:1;" d="M 118.917969 217.304688 L 126.917969 217.304688 L 126.917969 230.304688 L 118.917969 230.304688 Z M 118.917969 217.304688 "/>
<g style="fill:rgb(0%,0%,100%);fill-opacity:1;">
  <use xlink:href="#glyph0-1" x="118.917969" y="227.206055"/>
</g>
<path style="fill:none;stroke-width:1.2;stroke-linecap:butt;stroke-linejoin:miter;stroke:rgb(0%,0%,0%);stroke-opacity:1;stroke-miterlimit:10;" d="M 136.917969 198.847656 L 165.527344 198.496094 "/>
<path style="fill:none;stroke-width:1.2;stroke-linecap:butt;stroke-linejoin:miter;stroke:rgb(0%,0%,0%);stroke-opacity:1;stroke-miterlimit:10;" d="M 139.695312 192.082031 L 162.585938 191.800781 "/>
<path style="fill:none;stroke-width:1.2;stroke-linecap:butt;stroke-linejoin:miter;stroke:rgb(0%,0%,0%);stroke-opacity:1;stroke-miterlimit:10;" d="M 122.308594 174.246094 L 136.917969 198.847656 "/>
<path style="fill:none;stroke-width:1.2;stroke-linecap:butt;stroke-linejoin:miter;stroke:rgb(0%,0%,0%);stroke-opacity:1;stroke-miterlimit:10;" d="M 165.527344 198.496094 L 172.527344 186.019531 "/>
<path style="fill:none;stroke-width:1.2;stroke-linecap:butt;stroke-linejoin:miter;stroke:rgb(0%,0%,100%);stroke-opacity:1;stroke-miterlimit:10;" d="M 172.527344 186.019531 L 179.527344 173.542969 "/>
<path style="fill:none;stroke-width:1.2;stroke-linecap:butt;stroke-linejoin:miter;stroke:rgb(0%,0%,100%);stroke-opacity:1;stroke-miterlimit:10;" d="M 179.527344 173.542969 L 172.222656 161.242188 "/>
<path style="fill:none;stroke-width:1.2;stroke-linecap:butt;stroke-linejoin:miter;stroke:rgb(0%,0%,0%);stroke-opacity:1;stroke-miterlimit:10;" d="M 172.222656 161.242188 L 164.917969 148.941406 "/>
<path style="fill:none;stroke-width:1.2;stroke-linecap:butt;stroke-linejoin:miter;stroke:rgb(0%,0%,100%);stroke-opacity:1;stroke-miterlimit:10;" d="M 172.277344 174.519531 L 166.433594 164.679688 "/>
<path style="fill:none;stroke-width:1.2;stroke-linecap:butt;stroke-linejoin:miter;stroke:rgb(0%,0%,0%);stroke-opacity:1;stroke-miterlimit:10;" d="M 166.433594 164.679688 L 160.589844 154.839844 "/>
<path style=" stroke:none;fill-rule:nonzero;fill:rgb(100%,100%,100%);fill-opacity:1;" d="M 175.527344 167.042969 L 183.527344 167.042969 L 183.527344 180.042969 L 175.527344 180.042969 Z M 175.527344 167.042969 "/>
<g style="fill:rgb(0%,0%,100%);fill-opacity:1;">
  <use xlink:href="#glyph0-1" x="175.527344" y="176.944336"/>
</g>
<path style="fill:none;stroke-width:1.2;stroke-linecap:butt;stroke-linejoin:miter;stroke:rgb(0%,0%,0%);stroke-opacity:1;stroke-miterlimit:10;" d="M 164.917969 148.941406 L 150.613281 149.117188 "/>
<path style="fill:none;stroke-width:1.2;stroke-linecap:butt;stroke-linejoin:miter;stroke:rgb(0%,0%,100%);stroke-opacity:1;stroke-miterlimit:10;" d="M 150.613281 149.117188 L 136.304688 149.292969 "/>
<path style="fill:none;stroke-width:1.2;stroke-linecap:butt;stroke-linejoin:miter;stroke:rgb(0%,0%,0%);stroke-opacity:1;stroke-miterlimit:10;" d="M 164.917969 148.941406 L 171.917969 136.464844 "/>
<path style="fill:none;stroke-width:1.2;stroke-linecap:butt;stroke-linejoin:miter;stroke:rgb(100%,0%,0%);stroke-opacity:1;stroke-miterlimit:10;" d="M 171.917969 136.464844 L 178.917969 123.984375 "/>
<path style="fill:none;stroke-width:1.2;stroke-linecap:butt;stroke-linejoin:miter;stroke:rgb(0%,0%,100%);stroke-opacity:1;stroke-miterlimit:10;" d="M 136.304688 149.292969 L 129.304688 161.769531 "/>
<path style="fill:none;stroke-width:1.2;stroke-linecap:butt;stroke-linejoin:miter;stroke:rgb(0%,0%,0%);stroke-opacity:1;stroke-miterlimit:10;" d="M 129.304688 161.769531 L 122.308594 174.246094 "/>
<path style="fill:none;stroke-width:1.2;stroke-linecap:butt;stroke-linejoin:miter;stroke:rgb(0%,0%,100%);stroke-opacity:1;stroke-miterlimit:10;" d="M 140.777344 155.082031 L 135.179688 165.066406 "/>
<path style="fill:none;stroke-width:1.2;stroke-linecap:butt;stroke-linejoin:miter;stroke:rgb(0%,0%,0%);stroke-opacity:1;stroke-miterlimit:10;" d="M 135.179688 165.066406 L 129.578125 175.046875 "/>
<path style=" stroke:none;fill-rule:nonzero;fill:rgb(100%,100%,100%);fill-opacity:1;" d="M 132.304688 142.792969 L 140.304688 142.792969 L 140.304688 155.792969 L 132.304688 155.792969 Z M 132.304688 142.792969 "/>
<g style="fill:rgb(0%,0%,100%);fill-opacity:1;">
  <use xlink:href="#glyph0-1" x="132.304688" y="152.694336"/>
</g>
<path style="fill:none;stroke-width:1.2;stroke-linecap:butt;stroke-linejoin:miter;stroke:rgb(0%,0%,0%);stroke-opacity:1;stroke-miterlimit:10;" d="M 122.308594 174.246094 L 108 174.425781 "/>
<path style="fill:none;stroke-width:1.2;stroke-linecap:butt;stroke-linejoin:miter;stroke:rgb(0%,0%,100%);stroke-opacity:1;stroke-miterlimit:10;" d="M 108 174.425781 L 93.695312 174.601562 "/>
<path style="fill:none;stroke-width:1.2;stroke-linecap:butt;stroke-linejoin:miter;stroke:rgb(0%,0%,100%);stroke-opacity:1;stroke-miterlimit:10;" d="M 93.695312 174.601562 L 86.695312 187.078125 "/>
<path style="fill:none;stroke-width:1.2;stroke-linecap:butt;stroke-linejoin:miter;stroke:rgb(0%,0%,0%);stroke-opacity:1;stroke-miterlimit:10;" d="M 86.695312 187.078125 L 79.695312 199.554688 "/>
<path style="fill:none;stroke-width:1.2;stroke-linecap:butt;stroke-linejoin:miter;stroke:rgb(0%,0%,100%);stroke-opacity:1;stroke-miterlimit:10;" d="M 93.695312 174.601562 L 86.390625 162.300781 "/>
<path style="fill:none;stroke-width:1.2;stroke-linecap:butt;stroke-linejoin:miter;stroke:rgb(0%,0%,0%);stroke-opacity:1;stroke-miterlimit:10;" d="M 86.390625 162.300781 L 79.085938 150 "/>
<path style=" stroke:none;fill-rule:nonzero;fill:rgb(100%,100%,100%);fill-opacity:1;" d="M 89.695312 168.101562 L 97.695312 168.101562 L 97.695312 181.101562 L 89.695312 181.101562 Z M 89.695312 168.101562 "/>
<g style="fill:rgb(0%,0%,100%);fill-opacity:1;">
  <use xlink:href="#glyph0-1" x="89.695312" y="178.00293"/>
</g>
<path style="fill:none;stroke-width:1.2;stroke-linecap:butt;stroke-linejoin:miter;stroke:rgb(0%,0%,0%);stroke-opacity:1;stroke-miterlimit:10;" d="M 79.65625 196.191406 L 65.347656 196.367188 "/>
<path style="fill:none;stroke-width:1.2;stroke-linecap:butt;stroke-linejoin:miter;stroke:rgb(100%,0%,0%);stroke-opacity:1;stroke-miterlimit:10;" d="M 65.347656 196.367188 L 51.042969 196.542969 "/>
<path style="fill:none;stroke-width:1.2;stroke-linecap:butt;stroke-linejoin:miter;stroke:rgb(0%,0%,0%);stroke-opacity:1;stroke-miterlimit:10;" d="M 79.738281 202.921875 L 65.433594 203.097656 "/>
<path style="fill:none;stroke-width:1.2;stroke-linecap:butt;stroke-linejoin:miter;stroke:rgb(100%,0%,0%);stroke-opacity:1;stroke-miterlimit:10;" d="M 65.433594 203.097656 L 51.125 203.273438 "/>
<path style=" stroke:none;fill-rule:nonzero;fill:rgb(100%,100%,100%);fill-opacity:1;" d="M 42.085938 193.410156 L 51.085938 193.410156 L 51.085938 206.410156 L 42.085938 206.410156 Z M 42.085938 193.410156 "/>
<g style="fill:rgb(100%,0%,0%);fill-opacity:1;">
  <use xlink:href="#glyph0-2" x="42.085938" y="203.311523"/>
</g>
<path style="fill:none;stroke-width:1.2;stroke-linecap:butt;stroke-linejoin:miter;stroke:rgb(0%,0%,0%);stroke-opacity:1;stroke-miterlimit:10;" d="M 79.085938 150 L 93.082031 125.046875 "/>
<path style="fill:none;stroke-width:1.2;stroke-linecap:butt;stroke-linejoin:miter;stroke:rgb(0%,0%,0%);stroke-opacity:1;stroke-miterlimit:10;" d="M 93.082031 125.046875 L 78.472656 100.445312 "/>
<path style="fill:none;stroke-width:1.2;stroke-linecap:butt;stroke-linejoin:miter;stroke:rgb(0%,0%,0%);stroke-opacity:1;stroke-miterlimit:10;" d="M 78.472656 100.445312 L 92.472656 75.488281 "/>
<path style="fill:none;stroke-width:1.2;stroke-linecap:butt;stroke-linejoin:miter;stroke:rgb(0%,0%,0%);stroke-opacity:1;stroke-miterlimit:10;" d="M 74 94.65625 L 85.199219 74.691406 "/>
<path style="fill:none;stroke-width:1.2;stroke-linecap:butt;stroke-linejoin:miter;stroke:rgb(0%,0%,0%);stroke-opacity:1;stroke-miterlimit:10;" d="M 49.863281 100.796875 L 78.472656 100.445312 "/>
<path style="fill:none;stroke-width:1.2;stroke-linecap:butt;stroke-linejoin:miter;stroke:rgb(0%,0%,0%);stroke-opacity:1;stroke-miterlimit:10;" d="M 92.472656 75.488281 L 77.859375 50.886719 "/>
<path style="fill:none;stroke-width:1.2;stroke-linecap:butt;stroke-linejoin:miter;stroke:rgb(0%,0%,0%);stroke-opacity:1;stroke-miterlimit:10;" d="M 77.859375 50.886719 L 49.25 51.242188 "/>
<path style="fill:none;stroke-width:1.2;stroke-linecap:butt;stroke-linejoin:miter;stroke:rgb(0%,0%,0%);stroke-opacity:1;stroke-miterlimit:10;" d="M 75.082031 57.65625 L 52.195312 57.9375 "/>
<path style="fill:none;stroke-width:1.2;stroke-linecap:butt;stroke-linejoin:miter;stroke:rgb(0%,0%,0%);stroke-opacity:1;stroke-miterlimit:10;" d="M 49.25 51.242188 L 35.25 76.195312 "/>
<path style="fill:none;stroke-width:1.2;stroke-linecap:butt;stroke-linejoin:miter;stroke:rgb(0%,0%,0%);stroke-opacity:1;stroke-miterlimit:10;" d="M 35.25 76.195312 L 49.863281 100.796875 "/>
<path style="fill:none;stroke-width:1.2;stroke-linecap:butt;stroke-linejoin:miter;stroke:rgb(0%,0%,0%);stroke-opacity:1;stroke-miterlimit:10;" d="M 42.5 75.21875 L 54.1875 94.898438 "/>
<path style="fill:none;stroke-width:1.2;stroke-linecap:butt;stroke-linejoin:miter;stroke:rgb(100%,0%,0%);stroke-opacity:1;stroke-miterlimit:10;" d="M 178.917969 123.984375 L 193.222656 123.808594 "/>
<path style="fill:none;stroke-width:1.2;stroke-linecap:butt;stroke-linejoin:miter;stroke:rgb(0%,0%,0%);stroke-opacity:1;stroke-miterlimit:10;" d="M 193.222656 123.808594 L 207.527344 123.632812 "/>
<path style=" stroke:none;fill-rule:nonzero;fill:rgb(100%,100%,100%);fill-opacity:1;" d="M 174.917969 117.484375 L 183.917969 117.484375 L 183.917969 130.484375 L 174.917969 130.484375 Z M 174.917969 117.484375 "/>
<g style="fill:rgb(100%,0%,0%);fill-opacity:1;">
  <use xlink:href="#glyph0-2" x="174.917969" y="127.385742"/>
</g>
<path style="fill:none;stroke-width:1.2;stroke-linecap:butt;stroke-linejoin:miter;stroke:rgb(0%,0%,0%);stroke-opacity:1;stroke-miterlimit:10;" d="M 207.527344 123.632812 L 222.140625 148.234375 "/>
<path style="fill:none;stroke-width:1.2;stroke-linecap:butt;stroke-linejoin:miter;stroke:rgb(0%,0%,0%);stroke-opacity:1;stroke-miterlimit:10;" d="M 214.777344 122.65625 L 226.464844 142.335938 "/>
<path style="fill:none;stroke-width:1.2;stroke-linecap:butt;stroke-linejoin:miter;stroke:rgb(0%,0%,0%);stroke-opacity:1;stroke-miterlimit:10;" d="M 221.527344 98.679688 L 207.527344 123.632812 "/>
<path style="fill:none;stroke-width:1.2;stroke-linecap:butt;stroke-linejoin:miter;stroke:rgb(0%,0%,0%);stroke-opacity:1;stroke-miterlimit:10;" d="M 222.140625 148.234375 L 250.75 147.878906 "/>
<path style="fill:none;stroke-width:1.2;stroke-linecap:butt;stroke-linejoin:miter;stroke:rgb(0%,0%,0%);stroke-opacity:1;stroke-miterlimit:10;" d="M 250.75 147.878906 L 264.75 122.925781 "/>
<path style="fill:none;stroke-width:1.2;stroke-linecap:butt;stroke-linejoin:miter;stroke:rgb(0%,0%,0%);stroke-opacity:1;stroke-miterlimit:10;" d="M 246.277344 142.089844 L 257.476562 122.128906 "/>
<path style="fill:none;stroke-width:1.2;stroke-linecap:butt;stroke-linejoin:miter;stroke:rgb(0%,0%,0%);stroke-opacity:1;stroke-miterlimit:10;" d="M 264.75 122.925781 L 250.136719 98.324219 "/>
<path style="fill:none;stroke-width:1.2;stroke-linecap:butt;stroke-linejoin:miter;stroke:rgb(0%,0%,0%);stroke-opacity:1;stroke-miterlimit:10;" d="M 250.136719 98.324219 L 221.527344 98.679688 "/>
<path style="fill:none;stroke-width:1.2;stroke-linecap:butt;stroke-linejoin:miter;stroke:rgb(0%,0%,0%);stroke-opacity:1;stroke-miterlimit:10;" d="M 247.359375 105.09375 L 224.472656 105.375 "/>
</g>
</svg>

<svg xmlns="http://www.w3.org/2000/svg" xmlns:xlink="http://www.w3.org/1999/xlink" width="300pt" height="300pt" viewBox="0 0 300 300"><defs><symbol overflow="visible"><path d="M.547 1.938V-7.75h5.5v9.688zm.625-.61h4.266v-8.47H1.171zm0 0"/></symbol><symbol overflow="visible" id="a"><path d="M1.078-8.016h1.47l3.546 6.704v-6.704h1.062V0H5.688L2.124-6.703V0H1.078zm0 0"/></symbol><symbol overflow="visible" id="b"><path d="M4.328-7.28c-.78 0-1.406.296-1.875.89-.46.585-.687 1.382-.687 2.39 0 1.012.226 1.813.687 2.406.47.586 1.094.875 1.875.875.79 0 1.414-.288 1.875-.874.457-.593.688-1.394.688-2.406 0-1.008-.23-1.805-.687-2.39-.46-.594-1.086-.89-1.875-.89zm0-.892c1.125 0 2.024.383 2.703 1.14C7.708-6.28 8.048-5.27 8.048-4c0 1.262-.34 2.273-1.016 3.03C6.353-.22 5.454.157 4.33.157S2.3-.22 1.625-.97c-.668-.75-1-1.757-1-3.03 0-1.27.332-2.28 1-3.03.676-.76 1.578-1.142 2.703-1.142zm0 0"/></symbol></defs><g><path fill="#fff" d="M0 0h300v300H0z"/><path d="M80.31 249.113l14-24.957M94.31 224.156l14.303-.176" stroke-width="1.2" stroke="#000" stroke-miterlimit="10" fill="none"/><path d="M108.613 223.98l14.305-.175" stroke-width="1.2" stroke="#00f" stroke-miterlimit="10" fill="none"/><path d="M97.086 217.39l11.445-.14" stroke-width="1.2" stroke="#000" stroke-miterlimit="10" fill="none"/><path d="M108.53 217.25l11.443-.145" stroke-width="1.2" stroke="#00f" stroke-miterlimit="10" fill="none"/><path d="M79.695 199.555l14.614 24.6" stroke-width="1.2" stroke="#000" stroke-miterlimit="10" fill="none"/><path d="M122.918 223.805l7-12.477" stroke-width="1.2" stroke="#00f" stroke-miterlimit="10" fill="none"/><path d="M129.918 211.328l7-12.48" stroke-width="1.2" stroke="#000" stroke-miterlimit="10" fill="none"/><path d="M118.918 217.305h8v13h-8zm0 0" fill="#fff"/><use xlink:href="#a" x="118.918" y="227.206" fill="#00f"/><path d="M136.918 198.848l28.61-.352M139.695 192.082l22.89-.28M122.31 174.246l14.608 24.602M165.527 198.496l7-12.476" stroke-width="1.2" stroke="#000" stroke-miterlimit="10" fill="none"/><path d="M172.527 186.02l7-12.477M179.527 173.543l-7.304-12.3" stroke-width="1.2" stroke="#00f" stroke-miterlimit="10" fill="none"/><path d="M172.223 161.242l-7.305-12.3" stroke-width="1.2" stroke="#000" stroke-miterlimit="10" fill="none"/><path d="M172.277 174.52l-5.843-9.84" stroke-width="1.2" stroke="#00f" stroke-miterlimit="10" fill="none"/><path d="M166.434 164.68l-5.844-9.84" stroke-width="1.2" stroke="#000" stroke-miterlimit="10" fill="none"/><path d="M175.527 167.043h8v13h-8zm0 0" fill="#fff"/><use xlink:href="#a" x="175.527" y="176.944" fill="#00f"/><path d="M164.918 148.94l-14.305.177" stroke-width="1.2" stroke="#000" stroke-miterlimit="10" fill="none"/><path d="M150.613 149.117l-14.308.176" stroke-width="1.2" stroke="#00f" stroke-miterlimit="10" fill="none"/><path d="M164.918 148.94l7-12.475" stroke-width="1.2" stroke="#000" stroke-miterlimit="10" fill="none"/><path d="M171.918 136.465l7-12.48" stroke-width="1.2" stroke="#f00" stroke-miterlimit="10" fill="none"/><path d="M136.305 149.293l-7 12.477" stroke-width="1.2" stroke="#00f" stroke-miterlimit="10" fill="none"/><path d="M129.305 161.77l-6.996 12.476" stroke-width="1.2" stroke="#000" stroke-miterlimit="10" fill="none"/><path d="M140.777 155.082l-5.597 9.984" stroke-width="1.2" stroke="#00f" stroke-miterlimit="10" fill="none"/><path d="M135.18 165.066l-5.602 9.98" stroke-width="1.2" stroke="#000" stroke-miterlimit="10" fill="none"/><path d="M132.305 142.793h8v13h-8zm0 0" fill="#fff"/><use xlink:href="#a" x="132.305" y="152.694" fill="#00f"/><path d="M122.31 174.246l-14.31.18" stroke-width="1.2" stroke="#000" stroke-miterlimit="10" fill="none"/><path d="M108 174.426l-14.305.176M93.695 174.602l-7 12.476" stroke-width="1.2" stroke="#00f" stroke-miterlimit="10" fill="none"/><path d="M86.695 187.078l-7 12.477" stroke-width="1.2" stroke="#000" stroke-miterlimit="10" fill="none"/><path d="M93.695 174.602l-7.304-12.3" stroke-width="1.2" stroke="#00f" stroke-miterlimit="10" fill="none"/><path d="M86.39 162.3L79.087 150" stroke-width="1.2" stroke="#000" stroke-miterlimit="10" fill="none"/><path d="M89.695 168.102h8v13h-8zm0 0" fill="#fff"/><use xlink:href="#a" x="89.695" y="178.003" fill="#00f"/><path d="M79.656 196.19l-14.308.177" stroke-width="1.2" stroke="#000" stroke-miterlimit="10" fill="none"/><path d="M65.348 196.367l-14.305.176" stroke-width="1.2" stroke="#f00" stroke-miterlimit="10" fill="none"/><path d="M79.738 202.922l-14.304.176" stroke-width="1.2" stroke="#000" stroke-miterlimit="10" fill="none"/><path d="M65.434 203.098l-14.31.175" stroke-width="1.2" stroke="#f00" stroke-miterlimit="10" fill="none"/><path d="M42.086 193.41h9v13h-9zm0 0" fill="#fff"/><use xlink:href="#b" x="42.086" y="203.312" fill="#f00"/><path d="M79.086 150l13.996-24.953M93.082 125.047l-14.61-24.602M78.473 100.445l14-24.957M74 94.656L85.2 74.69M49.863 100.797l28.61-.352M92.473 75.488l-14.614-24.6M77.86 50.887l-28.61.355M75.082 57.656l-22.887.282M49.25 51.242l-14 24.953M35.25 76.195l14.613 24.602M42.5 75.22l11.688 19.678" stroke-width="1.2" stroke="#000" stroke-miterlimit="10" fill="none"/><path d="M178.918 123.984l14.305-.175" stroke-width="1.2" stroke="#f00" stroke-miterlimit="10" fill="none"/><path d="M193.223 123.81l14.304-.177" stroke-width="1.2" stroke="#000" stroke-miterlimit="10" fill="none"/><path d="M174.918 117.484h9v13h-9zm0 0" fill="#fff"/><use xlink:href="#b" x="174.918" y="127.386" fill="#f00"/><path d="M207.527 123.633l14.614 24.6M214.777 122.656l11.688 19.68M221.527 98.68l-14 24.953M222.14 148.234l28.61-.355M250.75 147.88l14-24.954M246.277 142.09l11.2-19.96M264.75 122.926l-14.613-24.602M250.137 98.324l-28.61.356M247.36 105.094l-22.887.28" stroke-width="1.2" stroke="#000" stroke-miterlimit="10" fill="none"/></g></svg>
